X:2983
T:Polska från Älvdalen
S:Efter [[!Lena Jonsson]], 11/2008
Z:Karen Myers (#2983)
Z:Upptecknad 1/2009
M:3/4
L:1/8
R:Polska
O:Älvdalen, Dalarna
K:G
G>B d2 d>(B | c/B/c/d/) e2- e>(c | e>)d Bd c>A | (FA/F/) G2 (D2 :|
|: G>)B (Bd) (g>f) | e2 c2- c>(B | c>)e (ea) a>(g | f/e/f) g2 e/(c/e) |
d2 (B/d/B) G>B |1 (A/F/A) G2 [(G,2G2] :|2 (A/F/A) G4 |]

